public/icons/whats-app.svg

<svg width="30px" height="30px" viewBox="0 0 100 100" fill="none"
     xmlns="http://www.w3.org/2000/svg">
    <path fill-rule="evenodd" clip-rule="evenodd"
          d="M50 100C77.6142 100 100 77.6142 100 50C100 22.3858 77.6142 0 50 0C22.3858 0 0 22.3858 0 50C0 77.6142 22.3858 100 50 100ZM69.7626 28.9928C64.6172 23.841 57.7739 21.0027 50.4832 21C35.4616 21 23.2346 33.2252 23.2292 48.2522C23.2274 53.0557 24.4823 57.7446 26.8668 61.8769L23 76L37.4477 72.2105C41.4282 74.3822 45.9107 75.5262 50.4714 75.528H50.4823C65.5029 75.528 77.7299 63.301 77.7363 48.2749C77.7408 40.9915 74.9089 34.1446 69.7626 28.9928ZM62.9086 53.9588C62.2274 53.6178 58.8799 51.9708 58.2551 51.7435C57.6313 51.5161 57.1766 51.4024 56.7228 52.0845C56.269 52.7666 54.964 54.2998 54.5666 54.7545C54.1692 55.2092 53.7718 55.2656 53.0915 54.9246C52.9802 54.8688 52.8283 54.803 52.6409 54.7217C51.6819 54.3057 49.7905 53.4855 47.6151 51.5443C45.5907 49.7382 44.2239 47.5084 43.8265 46.8272C43.4291 46.1452 43.7837 45.7769 44.1248 45.4376C44.3292 45.2338 44.564 44.9478 44.7987 44.662C44.9157 44.5194 45.0328 44.3768 45.146 44.2445C45.4345 43.9075 45.56 43.6516 45.7302 43.3049C45.7607 43.2427 45.7926 43.1776 45.8272 43.1087C46.0545 42.654 45.9409 42.2565 45.7708 41.9155C45.6572 41.6877 45.0118 40.1167 44.4265 38.6923C44.1355 37.984 43.8594 37.3119 43.671 36.8592C43.1828 35.687 42.6883 35.69 42.2913 35.6924C42.2386 35.6928 42.1876 35.6931 42.1386 35.6906C41.7421 35.6706 41.2874 35.667 40.8336 35.667C40.3798 35.667 39.6423 35.837 39.0175 36.5191C38.9773 36.5631 38.9323 36.6111 38.8834 36.6633C38.1738 37.4209 36.634 39.0648 36.634 42.2002C36.634 45.544 39.062 48.7748 39.4124 49.2411L39.415 49.2444C39.4371 49.274 39.4767 49.3309 39.5333 49.4121C40.3462 50.5782 44.6615 56.7691 51.0481 59.5271C52.6732 60.2291 53.9409 60.6475 54.9303 60.9612C56.5618 61.4796 58.046 61.4068 59.22 61.2313C60.5286 61.0358 63.2487 59.5844 63.8161 57.9938C64.3836 56.4033 64.3836 55.0392 64.2136 54.7554C64.0764 54.5258 63.7545 54.3701 63.2776 54.1395C63.1633 54.0843 63.0401 54.0247 62.9086 53.9588Z"
          fill="#ffffff"></path>
</svg>

<svg xmlns="http://www.w3.org/2000/svg" width="30" height="30" fill="none" viewBox="0 0 100 100"><path fill="#fff" fill-rule="evenodd" d="M50 100c27.614 0 50-22.386 50-50S77.614 0 50 0 0 22.386 0 50s22.386 50 50 50Zm19.763-71.007c-5.146-5.152-11.99-7.99-19.28-7.993-15.021 0-27.248 12.225-27.254 27.252a27.208 27.208 0 0 0 3.638 13.625L23 76l14.448-3.79a27.228 27.228 0 0 0 13.023 3.318h.011c15.02 0 27.248-12.227 27.254-27.253.005-7.283-2.827-14.13-7.973-19.282Zm-6.854 24.966c-.682-.341-4.03-1.988-4.654-2.216-.624-.227-1.078-.34-1.532.341-.454.683-1.759 2.216-2.156 2.67-.398.455-.795.512-1.475.17-.112-.055-.264-.121-.451-.202-.96-.416-2.85-1.236-5.026-3.178-2.024-1.806-3.391-4.036-3.788-4.717-.398-.682-.043-1.05.298-1.39.204-.203.439-.49.674-.775.117-.143.234-.285.347-.417.288-.337.414-.593.584-.94l.097-.196c.227-.455.114-.852-.056-1.194-.114-.227-.76-1.798-1.345-3.223-.29-.708-.567-1.38-.755-1.833-.488-1.172-.983-1.169-1.38-1.167-.052 0-.103.001-.152-.001-.397-.02-.852-.024-1.305-.024-.454 0-1.192.17-1.817.852l-.134.144c-.71.758-2.249 2.402-2.249 5.537 0 3.344 2.428 6.575 2.778 7.041l.003.003.118.168c.813 1.166 5.128 7.357 11.515 10.115a38.991 38.991 0 0 0 3.882 1.434c1.632.519 3.116.446 4.29.27 1.309-.195 4.029-1.647 4.596-3.237.568-1.59.568-2.955.398-3.239-.138-.23-.46-.385-.936-.616a27.479 27.479 0 0 1-.37-.18Z" clip-rule="evenodd"/></svg>
